flaticon/file-type/css.svg

<svg xmlns="http://www.w3.org/2000/svg" width="32" height="32" viewBox="0 0 24 24">
    <path d="M 21.082031 5.042969 L 16.265625 0.226562 C 16.121094 0.0820312 15.925781 0 15.71875 0 L 3.707031 0 C 3.21875 0 2.691406 0.378906 2.691406 1.210938 L 2.691406 23.171875 C 2.691406 23.519531 3.039062 23.855469 3.449219 23.960938 C 3.46875 23.96875 3.492188 23.976562 3.511719 23.980469 C 3.578125 23.992188 3.644531 24 3.707031 24 L 20.292969 24 C 20.355469 24 20.421875 23.992188 20.488281 23.980469 C 20.507812 23.976562 20.53125 23.96875 20.550781 23.960938 C 20.960938 23.855469 21.308594 23.519531 21.308594 23.171875 L 21.308594 5.785156 C 21.308594 5.464844 21.273438 5.230469 21.082031 5.042969 Z M 16.34375 1.476562 L 19.835938 4.964844 L 16.34375 4.964844 Z M 3.707031 23.171875 C 3.679688 23.171875 3.652344 23.160156 3.625 23.152344 C 3.5625 23.121094 3.515625 23.058594 3.515625 22.980469 L 3.515625 16.964844 L 20.484375 16.964844 L 20.484375 22.980469 C 20.484375 23.058594 20.4375 23.121094 20.375 23.152344 C 20.347656 23.160156 20.320312 23.171875 20.292969 23.171875 Z M 3.515625 16.136719 L 3.515625 1.210938 C 3.515625 1.121094 3.53125 0.828125 3.707031 0.828125 L 15.542969 0.828125 C 15.527344 0.878906 15.515625 0.933594 15.515625 0.988281 L 15.515625 5.703125 C 15.296875 5.503906 15.007812 5.378906 14.691406 5.378906 C 14.460938 5.378906 14.277344 5.566406 14.277344 5.792969 C 14.277344 6.023438 14.460938 6.207031 14.691406 6.207031 C 14.917969 6.207031 15.101562 6.394531 15.101562 6.621094 L 15.101562 8.277344 C 15.101562 8.773438 15.328125 9.214844 15.675781 9.515625 C 15.328125 9.820312 15.101562 10.261719 15.101562 10.757812 L 15.101562 12.414062 C 15.101562 12.640625 14.917969 12.828125 14.691406 12.828125 C 14.460938 12.828125 14.277344 13.011719 14.277344 13.242188 C 14.277344 13.46875 14.460938 13.65625 14.691406 13.65625 C 15.375 13.65625 15.929688 13.097656 15.929688 12.414062 L 15.929688 10.757812 C 15.929688 10.300781 16.300781 9.929688 16.757812 9.929688 C 16.988281 9.929688 17.171875 9.746094 17.171875 9.515625 C 17.171875 9.289062 16.988281 9.101562 16.757812 9.101562 C 16.300781 9.101562 15.929688 8.730469 15.929688 8.277344 L 15.929688 6.621094 C 15.929688 6.300781 15.804688 6.011719 15.609375 5.792969 L 20.320312 5.792969 C 20.375 5.792969 20.429688 5.78125 20.484375 5.769531 C 20.484375 5.773438 20.484375 5.777344 20.484375 5.785156 L 20.484375 16.136719 Z M 3.515625 16.136719"/>
    <path d="M8.289062 19.015625C8.390625 18.890625 8.503906 18.800781 8.628906 18.746094 8.753906 18.695312 8.890625 18.667969 9.027344 18.667969 9.152344 18.667969 9.273438 18.691406 9.386719 18.742188 9.503906 18.789062 9.605469 18.871094 9.703125 18.980469L10.171875 18.558594C10.015625 18.410156 9.839844 18.296875 9.644531 18.222656 9.449219 18.144531 9.238281 18.109375 9.011719 18.109375 8.765625 18.109375 8.539062 18.152344 8.328125 18.246094 8.117188 18.339844 7.933594 18.472656 7.777344 18.652344 7.621094 18.828125 7.496094 19.050781 7.40625 19.316406 7.320312 19.582031 7.273438 19.890625 7.273438 20.242188 7.273438 20.589844 7.320312 20.902344 7.40625 21.167969 7.496094 21.4375 7.621094 21.660156 7.777344 21.835938 7.933594 22.011719 8.113281 22.148438 8.324219 22.238281 8.535156 22.328125 8.761719 22.375 9.011719 22.375 9.238281 22.375 9.449219 22.335938 9.644531 22.261719 9.839844 22.183594 10.015625 22.070312 10.171875 21.921875L9.703125 21.507812C9.601562 21.617188 9.496094 21.695312 9.375 21.746094 9.257812 21.792969 9.128906 21.820312 8.996094 21.820312 8.859375 21.820312 8.730469 21.789062 8.605469 21.730469 8.484375 21.671875 8.375 21.582031 8.277344 21.453125 8.183594 21.328125 8.105469 21.164062 8.050781 20.964844 7.996094 20.765625 7.96875 20.523438 7.964844 20.242188 7.96875 19.949219 8 19.707031 8.054688 19.503906 8.113281 19.304688 8.191406 19.140625 8.289062 19.015625zM13.046875 20.300781C12.917969 20.207031 12.777344 20.128906 12.625 20.0625 12.476562 19.996094 12.335938 19.929688 12.207031 19.859375 12.078125 19.789062 11.972656 19.707031 11.886719 19.613281 11.796875 19.523438 11.753906 19.402344 11.753906 19.25 11.753906 19.191406 11.769531 19.125 11.800781 19.0625 11.832031 18.996094 11.871094 18.933594 11.925781 18.882812 11.976562 18.828125 12.039062 18.785156 12.105469 18.75 12.175781 18.714844 12.246094 18.691406 12.320312 18.683594 12.457031 18.671875 12.566406 18.671875 12.65625 18.679688 12.742188 18.6875 12.8125 18.699219 12.863281 18.71875 12.917969 18.738281 12.957031 18.757812 12.984375 18.773438 13.015625 18.792969 13.039062 18.808594 13.0625 18.820312 13.066406 18.816406 13.078125 18.796875 13.097656 18.761719 13.117188 18.730469 13.136719 18.6875 13.164062 18.636719 13.191406 18.585938 13.21875 18.53125 13.25 18.472656 13.28125 18.414062 13.304688 18.359375 13.328125 18.3125 13.21875 18.238281 13.074219 18.1875 12.898438 18.15625 12.722656 18.125 12.546875 18.105469 12.371094 18.105469 12.203125 18.105469 12.042969 18.132812 11.890625 18.1875 11.734375 18.238281 11.601562 18.316406 11.488281 18.414062 11.371094 18.515625 11.28125 18.636719 11.210938 18.78125 11.144531 18.925781 11.109375 19.085938 11.109375 19.273438 11.109375 19.476562 11.152344 19.644531 11.242188 19.78125 11.328125 19.917969 11.4375 20.035156 11.570312 20.132812 11.699219 20.234375 11.84375 20.320312 11.992188 20.394531 12.144531 20.46875 12.285156 20.542969 12.414062 20.617188 12.546875 20.6875 12.652344 20.769531 12.738281 20.863281 12.828125 20.953125 12.871094 21.0625 12.871094 21.191406 12.871094 21.402344 12.808594 21.5625 12.6875 21.667969 12.5625 21.773438 12.386719 21.828125 12.15625 21.828125 12.082031 21.828125 12 21.820312 11.914062 21.804688 11.828125 21.792969 11.742188 21.773438 11.652344 21.746094 11.566406 21.722656 11.484375 21.695312 11.402344 21.667969 11.320312 21.640625 11.253906 21.609375 11.203125 21.582031L11.082031 22.066406C11.148438 22.125 11.222656 22.171875 11.3125 22.210938 11.402344 22.25 11.492188 22.28125 11.59375 22.304688 11.691406 22.328125 11.789062 22.34375 11.882812 22.351562 11.980469 22.363281 12.074219 22.367188 12.164062 22.367188 12.375 22.367188 12.5625 22.335938 12.730469 22.269531 12.894531 22.207031 13.035156 22.121094 13.148438 22.011719 13.261719 21.90625 13.347656 21.78125 13.410156 21.640625 13.472656 21.5 13.503906 21.351562 13.503906 21.203125 13.503906 20.980469 13.460938 20.796875 13.375 20.65625 13.289062 20.515625 13.179688 20.398438 13.046875 20.300781zM16.113281 20.300781C15.984375 20.207031 15.84375 20.128906 15.691406 20.0625 15.542969 19.996094 15.402344 19.929688 15.273438 19.859375 15.144531 19.789062 15.039062 19.707031 14.953125 19.613281 14.863281 19.523438 14.820312 19.402344 14.820312 19.25 14.820312 19.191406 14.835938 19.125 14.867188 19.0625 14.898438 18.996094 14.9375 18.933594 14.992188 18.882812 15.042969 18.828125 15.105469 18.785156 15.171875 18.75 15.242188 18.714844 15.3125 18.691406 15.386719 18.683594 15.523438 18.671875 15.632812 18.671875 15.722656 18.679688 15.808594 18.6875 15.878906 18.699219 15.929688 18.71875 15.984375 18.738281 16.023438 18.757812 16.050781 18.773438 16.082031 18.792969 16.105469 18.808594 16.128906 18.820312 16.132812 18.816406 16.144531 18.796875 16.164062 18.761719 16.183594 18.730469 16.203125 18.6875 16.230469 18.636719 16.257812 18.585938 16.285156 18.53125 16.316406 18.472656 16.34375 18.414062 16.371094 18.359375 16.394531 18.3125 16.285156 18.238281 16.140625 18.1875 15.964844 18.15625 15.785156 18.125 15.613281 18.105469 15.4375 18.105469 15.269531 18.105469 15.109375 18.132812 14.953125 18.1875 14.800781 18.238281 14.667969 18.316406 14.554688 18.414062 14.4375 18.515625 14.347656 18.636719 14.277344 18.78125 14.210938 18.925781 14.175781 19.085938 14.175781 19.273438 14.175781 19.476562 14.21875 19.644531 14.308594 19.78125 14.394531 19.917969 14.503906 20.035156 14.636719 20.132812 14.765625 20.234375 14.910156 20.320312 15.058594 20.394531 15.210938 20.46875 15.351562 20.542969 15.480469 20.617188 15.609375 20.6875 15.71875 20.769531 15.804688 20.863281 15.894531 20.953125 15.9375 21.0625 15.9375 21.191406 15.9375 21.402344 15.875 21.5625 15.753906 21.667969 15.628906 21.773438 15.453125 21.828125 15.222656 21.828125 15.148438 21.828125 15.066406 21.820312 14.980469 21.804688 14.894531 21.792969 14.808594 21.773438 14.71875 21.746094 14.632812 21.722656 14.550781 21.695312 14.46875 21.667969 14.386719 21.640625 14.320312 21.609375 14.269531 21.582031L14.148438 22.066406C14.214844 22.125 14.289062 22.171875 14.378906 22.210938 14.464844 22.25 14.558594 22.28125 14.660156 22.304688 14.757812 22.328125 14.855469 22.34375 14.949219 22.351562 15.046875 22.363281 15.140625 22.367188 15.230469 22.367188 15.441406 22.367188 15.628906 22.335938 15.796875 22.269531 15.960938 22.207031 16.101562 22.121094 16.214844 22.011719 16.328125 21.90625 16.414062 21.78125 16.476562 21.640625 16.539062 21.5 16.570312 21.351562 16.570312 21.203125 16.570312 20.980469 16.527344 20.796875 16.441406 20.65625 16.355469 20.515625 16.246094 20.398438 16.113281 20.300781zM8.484375 8.277344L8.484375 6.621094C8.484375 6.394531 8.667969 6.207031 8.898438 6.207031 9.125 6.207031 9.308594 6.023438 9.308594 5.792969 9.308594 5.566406 9.125 5.378906 8.898438 5.378906 8.210938 5.378906 7.65625 5.9375 7.65625 6.621094L7.65625 8.277344C7.65625 8.730469 7.285156 9.101562 6.828125 9.101562 6.597656 9.101562 6.414062 9.289062 6.414062 9.515625 6.414062 9.746094 6.597656 9.929688 6.828125 9.929688 7.285156 9.929688 7.65625 10.300781 7.65625 10.757812L7.65625 12.414062C7.65625 13.097656 8.210938 13.65625 8.898438 13.65625 9.125 13.65625 9.308594 13.46875 9.308594 13.242188 9.308594 13.011719 9.125 12.828125 8.898438 12.828125 8.667969 12.828125 8.484375 12.640625 8.484375 12.414062L8.484375 10.757812C8.484375 10.261719 8.257812 9.820312 7.910156 9.515625 8.257812 9.214844 8.484375 8.773438 8.484375 8.277344zM8.484375 8.277344"/>
</svg>

<svg xmlns="http://www.w3.org/2000/svg" width="32" height="32" viewBox="0 0 24 24">
    <path d="M21.082 5.043L16.266.227A.771.771 0 0 0 15.719 0H3.707c-.488 0-1.016.379-1.016 1.21v21.962c0 .348.348.683.758.789.02.008.043.016.063.02.066.011.133.019.195.019h16.586c.062 0 .129-.008.195-.02a.384.384 0 0 0 .063-.02c.41-.105.758-.44.758-.788V5.785c0-.32-.036-.555-.227-.742zm-4.738-3.566l3.492 3.488h-3.492zM3.707 23.172c-.027 0-.055-.012-.082-.02a.192.192 0 0 1-.11-.172v-6.015h16.97v6.015c0 .079-.047.141-.11.172-.027.008-.055.02-.082.02zm-.191-7.035V1.21c0-.09.015-.383.191-.383h11.836a.55.55 0 0 0-.027.16v4.715a1.224 1.224 0 0 0-.825-.324.414.414 0 0 0 0 .828c.227 0 .41.188.41.414v1.656c0 .496.227.938.575 1.239a1.65 1.65 0 0 0-.574 1.242v1.656a.413.413 0 0 1-.41.414.414.414 0 0 0 0 .828c.683 0 1.238-.558 1.238-1.242v-1.656c0-.457.37-.828.828-.828a.414.414 0 0 0 0-.828.828.828 0 0 1-.828-.825V6.621c0-.32-.125-.61-.32-.828h4.71c.055 0 .11-.012.164-.023v10.367zm0 0"/>
    <path d="M8.29 19.016a.912.912 0 0 1 .339-.27c.125-.05.262-.078.398-.078a.871.871 0 0 1 .676.312l.469-.421a1.575 1.575 0 0 0-.527-.336 1.686 1.686 0 0 0-.633-.114c-.246 0-.473.043-.684.137-.21.094-.394.227-.55.406a1.91 1.91 0 0 0-.372.664 3.006 3.006 0 0 0-.133.926c0 .348.047.66.133.926.09.27.215.492.371.668.157.176.336.312.547.402.211.09.438.137.688.137.226 0 .437-.04.633-.113a1.65 1.65 0 0 0 .527-.34l-.469-.414a.94.94 0 0 1-.328.238 1.023 1.023 0 0 1-.379.074.908.908 0 0 1-.39-.09.905.905 0 0 1-.329-.277 1.454 1.454 0 0 1-.226-.488 2.93 2.93 0 0 1-.086-.723 3 3 0 0 1 .09-.738c.058-.2.136-.363.234-.488zm0 0M13.047 20.3a2.22 2.22 0 0 0-.422-.238 5.972 5.972 0 0 1-.418-.203 1.222 1.222 0 0 1-.32-.246.49.49 0 0 1-.086-.55.67.67 0 0 1 .52-.379c.136-.012.245-.012.335-.004.086.008.156.02.207.039a.75.75 0 0 1 .121.054c.032.02.055.036.079.047a.497.497 0 0 0 .035-.058c.02-.032.039-.075.066-.125l.086-.164c.031-.059.055-.114.078-.16a1.11 1.11 0 0 0-.43-.157 3.013 3.013 0 0 0-.527-.05c-.168 0-.328.027-.48.081a1.127 1.127 0 0 0-.68.594 1.154 1.154 0 0 0-.102.492c0 .204.043.372.133.508.086.137.195.254.328.352.13.101.274.187.422.262.153.074.293.148.422.222.133.07.238.153.324.246.09.09.133.2.133.328 0 .211-.062.372-.184.477-.124.105-.3.16-.53.16-.075 0-.157-.008-.243-.023a1.668 1.668 0 0 1-.262-.059c-.086-.023-.168-.05-.25-.078a1.258 1.258 0 0 1-.199-.086l-.121.484c.066.059.14.106.23.145a1.934 1.934 0 0 0 .57.14c.098.012.192.016.282.016.211 0 .399-.031.566-.097a1.22 1.22 0 0 0 .418-.258 1.125 1.125 0 0 0 .356-.809 1.04 1.04 0 0 0-.129-.547 1.239 1.239 0 0 0-.328-.355zm0 0M16.113 20.3a2.22 2.22 0 0 0-.422-.238 5.972 5.972 0 0 1-.418-.203 1.222 1.222 0 0 1-.32-.246.49.49 0 0 1-.086-.55.67.67 0 0 1 .52-.379c.136-.012.246-.012.336-.004.086.008.156.02.207.039.054.02.093.039.12.054.032.02.055.036.079.047a.497.497 0 0 0 .035-.058c.02-.032.04-.075.066-.125.028-.051.055-.106.086-.164.028-.059.055-.114.079-.16a1.11 1.11 0 0 0-.43-.157 3.05 3.05 0 0 0-.527-.05 1.45 1.45 0 0 0-.485.081 1.127 1.127 0 0 0-.676.594 1.154 1.154 0 0 0-.101.492c0 .204.043.372.133.508.086.137.195.254.328.352.129.101.273.187.422.262.152.074.293.148.421.222.13.07.239.153.325.246.09.09.133.2.133.328 0 .211-.063.372-.184.477-.125.105-.3.16-.531.16-.075 0-.157-.008-.243-.023a1.668 1.668 0 0 1-.261-.059c-.086-.023-.168-.05-.25-.078a1.258 1.258 0 0 1-.2-.086l-.12.484c.066.059.14.106.23.145.086.039.18.07.281.094.098.023.195.039.29.047.097.011.19.015.28.015.211 0 .399-.031.567-.097a1.22 1.22 0 0 0 .418-.258 1.125 1.125 0 0 0 .355-.809 1.04 1.04 0 0 0-.129-.547 1.239 1.239 0 0 0-.328-.355zm0 0M8.484 8.277V6.621c0-.226.184-.414.414-.414.227 0 .41-.184.41-.414a.413.413 0 0 0-.41-.414c-.687 0-1.242.559-1.242 1.242v1.656a.828.828 0 0 1-.828.825.414.414 0 0 0 0 .828c.457 0 .828.37.828.828v1.656c0 .684.555 1.242 1.242 1.242.227 0 .41-.187.41-.414a.411.411 0 0 0-.41-.414.414.414 0 0 1-.414-.414v-1.656a1.65 1.65 0 0 0-.574-1.242c.348-.301.574-.743.574-1.239zm0 0"/>
</svg>
